X:22
T:Banshee, The
T:McMahon's
R:reel
C:James McMahon (Co. Fermanagh fiddle/flute player, b. ~1900)
Z:id:hn-reel-22
M:C|
K:G
~G3D EDB,D|GFGB d2Bd|eged BAGA|BAGE EDDE|
~G3D EDB,D|GFGB d2Bd|eged BAGA|BAGE EDD2:|
|:eaag efge|dBBA B3z|eB~B2 gBfB|eBBA B3z|
eaag efge|dBBA B3z|eged BAGA|BAGE EDD2:|
<end>
<start>
